app/dist/common/images/lincoln-electric.svg

<svg height="18" width="18" xmlns="http://www.w3.org/2000/svg"><path d="m0 0h18v18h-18z" fill="#c82e37"/><path d="m12.02 14c1.075 0 1.98-.91 1.98-2.047v-5.906c0-1.08-.905-2.047-1.98-2.047h-5.984c-1.131 0-2.036.967-2.036 2.047v5.906c0 1.137.905 2.047 2.035 2.047h5.986z" fill="#0c0e0f"/><path d="m8.544 10.678h2.456v1.322h-4v-6h1.544z" fill="#fff"/></svg>

<!-- by TradingView --><svg width="18" height="18" xmlns="http://www.w3.org/2000/svg"><path fill="#C82E37" d="M0 0h18v18H0z"/><path d="M12.02 14c1.075 0 1.98-.91 1.98-2.047V6.047C14 4.967 13.095 4 12.02 4H6.036C4.905 4 4 4.967 4 6.047v5.906C4 13.09 4.905 14 6.035 14h5.986z" fill="#0C0E0F"/><path d="M8.544 10.678H11V12H7V6h1.544v4.678z" fill="#fff"/></svg>
